build/img/sprite.svg

<svg xmlns="http://www.w3.org/2000/svg" xmlns:xlink="http://www.w3.org/1999/xlink"><defs><style>.cls-1{isolation:isolate}.cls-2{fill:#c0c7c9;fill-rule:evenodd}</style><style>.cls-1{fill:#000;fill-rule:evenodd}</style><style>.cls-1{fill:#000;fill-rule:evenodd}</style><style>.cls-1{fill:#000;fill-rule:evenodd}</style></defs><symbol id="icon_basket" viewBox="0 0 14 15.989"><title>Trash</title><g id="Recycle_Bin_copy" data-name="Recycle_Bin copy" class="cls-1"><path class="cls-2" d="M13 3h-3V2a2.183 2.183 0 0 0-2-2H6a2.21 2.21 0 0 0-2 2v1H1a1.074 1.074 0 0 0-1 1 1.074 1.074 0 0 0 1 1v8.994a2.267 2.267 0 0 0 2 2h8a2.084 2.084 0 0 0 2-2V5a1.074 1.074 0 0 0 1-1 1.074 1.074 0 0 0-1-1zM6 2h2v1H6zm5 11.992H3V5h8z" transform="translate(0 -.001)" id="Recycle_Bin_copy-2" data-name="Recycle_Bin copy"/></g></symbol><symbol id="icon_calendar" viewBox="0 0 16 18" preserveAspectRatio="xMidYMid"><path d="M14 18H2a2 2 0 0 1-2-2V4a2 2 0 0 1 2-2h2V1a1 1 0 0 1 2 0v1h4V1a1 1 0 0 1 2 0v1h2a2 2 0 0 1 2 2v12a2 2 0 0 1-2 2zm0-14h-2v1a1 1 0 0 1-2 0V4H6v1a1 1 0 0 1-2 0V4H2v3h12V4zm0 5H2v7h12V9zm-7 3H5v-2h2v2zm0 3H5v-2h2v2zm4-3H9v-2h2v2zm0 3H9v-2h2v2z" class="cls-1"/></symbol><symbol id="icon_edit" viewBox="0 0 16 18" preserveAspectRatio="xMidYMid"><path d="M5 18H0v-5L11 0l5 5L5 18zm-3-2h2.072l.236-.278-2.162-2.162-.146.172V16zm1.442-3.972l2.162 2.162 4.662-5.51-2.162-2.162-4.662 5.51zM9.4 4.986l2.162 2.162 1.722-2.035-2.161-2.162L9.4 4.986z" class="cls-1"/></symbol><symbol id="icon_profile" viewBox="0 0 14 16"><image width="14" height="16" xlink:href="data:img/png;base64,iVBORw0KGgoAAAANSUhEUgAAAA4AAAAQBAMAAADUulMJAAAABGdBTUEAALGPC/xhBQAAACBjSFJNAAB6JgAAgIQAAPoAAACA6AAAdTAAAOpgAAA6mAAAF3CculE8AAAAJ1BMVEUAAABKpClKpClKpClKpClKpClKpClKpClKpClKpClKpClKpCkAAADSVqwWAAAAC3RSTlMAEJ/P72AwIIC/cC5+6bQAAAABYktHRACIBR1IAAAACXBIWXMAAC4jAAAuIwF4pT92AAAAB3RJTUUH4AwWEwgiacuCpQAAAGtJREFUCNdjYGDU3r1JgIGBQXj37t2GQFrblSFkE5DeHcDAuoWBgW03iJ0Apxl2FzCwg9jWDQwcm4F09FYQYmAQ2W282xGo3nvLTO8tCUDjpjNUAg3s3gWUW72DwbsBSHNsYdgNAQyzwdROAPkAJqCkgr/LAAAAAElFTkSuQmCC"/></symbol><symbol id="icon_profile_big" viewBox="0 0 19.781 20" preserveAspectRatio="xMidYMid"><path d="M14.649 13.005c1.883.51 4.48 1.21 5.137 3.758.1.388-.304.812-.62 1.192-.982 1.18-3.627 1.868-8.375 2.014V20c-.356 0-.669-.011-1.005-.016-.336.005-.65.016-1.006.016v-.031c-4.739-.146-7.347-.834-8.329-2.014-.316-.38-.555-.804-.455-1.192.657-2.548 3.175-3.248 5.058-3.758 1.244-.338 2.098-.608 2.113-.995-.075-.039-.207-.089-.298-.128-1.4-.602-2.661-1.601-2.661-5.882 0-1.6 1.137-4.815 4.572-5.739V0c.386 0 .748.018 1.09.05.293-.032.6-.05.921-.05v.18c4.164.812 4.634 4.175 4.634 5.82 0 4.281-1.346 5.28-2.746 5.882-.087.038-.125.085-.2.123.074.413.974.675 2.17 1zm-2.735-2.944C12.65 9.745 13.29 9.352 13.29 6c0-.721-.413-3.427-3.504-3.917C6.701 2.573 6.318 5.279 6.318 6c0 3.352.796 3.745 1.531 4.061.533.229 1.464.654 1.464 1.939 0 1.93-2.067 2.483-3.704 2.927-1.782.483-2.809.897-3.29 1.937.509.317 2.245 1.05 7.538 1.128 6.055-.078 6.956-.811 7.464-1.128-.48-1.04-1.584-1.454-3.366-1.937-1.637-.444-3.602-.997-3.602-2.927 0-1.285 1.028-1.71 1.561-1.939z" class="cls-1"/></symbol></svg>

<svg xmlns="http://www.w3.org/2000/svg" xmlns:xlink="http://www.w3.org/1999/xlink"><defs><style>.cls-1{isolation:isolate;}.cls-2{fill:#c0c7c9;fill-rule:evenodd;}</style>
    <style>
      .cls-1 {
        fill: #000;
        fill-rule: evenodd;
      }
    </style>
  
    <style>
      .cls-1 {
        fill: #000;
        fill-rule: evenodd;
      }
    </style>
  </defs><symbol id="icon-basket" viewBox="0 0 14 15.989"><title>Trash</title><g id="Recycle_Bin_copy" data-name="Recycle_Bin copy" class="cls-1"><g id="Recycle_Bin_copy-2" data-name="Recycle_Bin copy"><path class="cls-2" d="M13,3H10V2A2.183,2.183,0,0,0,8,0H6A2.21,2.21,0,0,0,4,2V3H1A1.074,1.074,0,0,0,0,4,1.074,1.074,0,0,0,1,5v8.994a2.267,2.267,0,0,0,2,2h8a2.084,2.084,0,0,0,2-2V5a1.074,1.074,0,0,0,1-1A1.074,1.074,0,0,0,13,3ZM6,2H8V3H6Zm5,11.992H3V5h8Z" transform="translate(0 -0.001)"/></g></g></symbol><symbol id="icon_calendar" viewBox="0 0 16 18" preserveAspectRatio="xMidYMid">
  
  <path d="M14.000,18.000 L2.000,18.000 C0.895,18.000 -0.000,17.104 -0.000,16.000 L-0.000,9.000 L-0.000,7.000 L-0.000,4.000 C-0.000,2.895 0.895,2.000 2.000,2.000 L4.000,2.000 L4.000,1.000 C4.000,0.448 4.448,-0.000 5.000,-0.000 C5.552,-0.000 6.000,0.448 6.000,1.000 L6.000,2.000 L10.000,2.000 L10.000,1.000 C10.000,0.448 10.448,-0.000 11.000,-0.000 C11.552,-0.000 12.000,0.448 12.000,1.000 L12.000,2.000 L14.000,2.000 C15.105,2.000 16.000,2.895 16.000,4.000 L16.000,7.000 L16.000,9.000 L16.000,16.000 C16.000,17.104 15.105,18.000 14.000,18.000 ZM14.000,4.000 L12.000,4.000 L12.000,5.000 C12.000,5.552 11.552,6.000 11.000,6.000 C10.448,6.000 10.000,5.552 10.000,5.000 L10.000,4.000 L6.000,4.000 L6.000,5.000 C6.000,5.552 5.552,6.000 5.000,6.000 C4.448,6.000 4.000,5.552 4.000,5.000 L4.000,4.000 L2.000,4.000 L2.000,7.000 L14.000,7.000 L14.000,4.000 ZM14.000,9.000 L2.000,9.000 L2.000,16.000 L14.000,16.000 L14.000,9.000 ZM7.000,12.000 L5.000,12.000 L5.000,10.000 L7.000,10.000 L7.000,12.000 ZM7.000,15.000 L5.000,15.000 L5.000,13.000 L7.000,13.000 L7.000,15.000 ZM11.000,12.000 L9.000,12.000 L9.000,10.000 L11.000,10.000 L11.000,12.000 ZM11.000,15.000 L9.000,15.000 L9.000,13.000 L11.000,13.000 L11.000,15.000 Z" class="cls-1"/>
</symbol><symbol id="icon_edit" viewBox="0 0 16 18" preserveAspectRatio="xMidYMid">
  
  <path d="M5.000,18.000 L-0.000,18.000 L-0.000,13.000 L11.000,-0.000 L16.000,5.000 L5.000,18.000 ZM2.000,16.000 L4.072,16.000 L4.308,15.722 L2.146,13.560 L2.000,13.732 L2.000,16.000 ZM3.442,12.028 L5.604,14.190 L10.266,8.680 L8.104,6.518 L3.442,12.028 ZM9.400,4.986 L11.562,7.148 L13.284,5.113 L11.123,2.951 L9.400,4.986 Z" class="cls-1"/>
</symbol><symbol id="icon_profile" viewBox="0 0 14 16">
  <metadata><?xpacket begin="﻿" id="W5M0MpCehiHzreSzNTczkc9d"?>
<x:xmpmeta xmlns:x="adobe:ns:meta/" x:xmptk="Adobe XMP Core 5.6-c138 79.159824, 2016/09/14-01:09:01        ">
   <rdf:RDF xmlns:rdf="http://www.w3.org/1999/02/22-rdf-syntax-ns#">
      <rdf:Description rdf:about=""/>
   </rdf:RDF>
</x:xmpmeta>
                                                                                                    
                                                                                                    
                                                                                                    
                                                                                                    
                                                                                                    
                                                                                                    
                                                                                                    
                                                                                                    
                                                                                                    
                                                                                                    
                                                                                                    
                                                                                                    
                                                                                                    
                                                                                                    
                                                                                                    
                                                                                                    
                                                                                                    
                                                                                                    
                                                                                                    
                                                                                                    
                           
<?xpacket end="w"?></metadata>
<image width="14" height="16" xlink:href="data:img/png;base64,iVBORw0KGgoAAAANSUhEUgAAAA4AAAAQBAMAAADUulMJAAAABGdBTUEAALGPC/xhBQAAACBjSFJNAAB6JgAAgIQAAPoAAACA6AAAdTAAAOpgAAA6mAAAF3CculE8AAAAJ1BMVEUAAABKpClKpClKpClKpClKpClKpClKpClKpClKpClKpClKpCkAAADSVqwWAAAAC3RSTlMAEJ/P72AwIIC/cC5+6bQAAAABYktHRACIBR1IAAAACXBIWXMAAC4jAAAuIwF4pT92AAAAB3RJTUUH4AwWEwgiacuCpQAAAGtJREFUCNdjYGDU3r1JgIGBQXj37t2GQFrblSFkE5DeHcDAuoWBgW03iJ0Apxl2FzCwg9jWDQwcm4F09FYQYmAQ2W282xGo3nvLTO8tCUDjpjNUAg3s3gWUW72DwbsBSHNsYdgNAQyzwdROAPkAJqCkgr/LAAAAAElFTkSuQmCC"/>
</symbol></svg>
